!!!!SEGMENT: pl-sa--551-a-ix-31--004_kurpinski-karol-kazimierz--warszawianka.krn
!!!cenid: 18xx:503
!!!COM: Kurpiński, Karol Kazimierz
!!!COM-rismid: pe30018952
!!!CDT: 1785/03/06-1857/09/18
!!!CNT: Polish
!!!OTL: Warszawianka
!!!PDT:
!!!AGN: Secular; Warsaw
!!!SMS-siglum: PL-SA
!!!SMS-shelfmark: 551/A IX 31
!!!SMS-shelfwork: 004 W
!!!SMS-variant:
!!!SMS-altvar:
!!!NIFC-rismid: 1001069449
!!!URL-scan: http://bc.bdsandomierz.pl/dlibra/publication/1307/edition/1275/content
!!!ONB-nifc: Str. 4 (s. 4) - str. 6 (s. 2)
!!!key:
**kern	**kern	**dynam
*part2	*part1	*part1
*staff2	*staff1	*
*Iempty	*Iempty	*
*	*I"keyb	*
*clefF4	*clefG2	*
*k[b-]	*k[b-]	*
*F:	*F:	*
*M4/4	*M4/4	*
*met(c)	*met(c)	*
!	!LO:TX:i:a:t=Warszawianka	!
!	!	!LO:DY:b:rj
4r	8.f/L	p
.	16a/Jk	.
=1	=1	=1
*tremolo	*	*
8A 8F\L	4cc\	.
8c\	.	.
8A 8F\	4a\	.
8c\J	.	.
*Xtremolo	*	*
*rep	*	*
8A 8F\L	4.ff\	.
8c\	.	.
8A 8F\	.	.
8c\J	8a\	.
*Xrep	*	*
=2	=2	=2
*tremolo	*	*
8G 8E\L	4.cc\	.
8c\	.	.
8G 8E\	.	.
8c\J	8b-\	.
*Xtremolo	*	*
*rep	*	*
8G 8E\L	4g/	.
8c\	.	.
8G 8E\	8.g/L	.
8c\J	.	.
.	16b-/Jk	.
*Xrep	*	*
=3	=3	=3
*tremolo	*	*
8A 8F\L	4.a/	.
8c\	.	.
8A 8F\	.	.
8c\J	8a/	.
8G 8E 8C\L	8g/L	.
8c\	8cc/	.
8G 8E 8C\	8.b-/	.
8c\J	.	.
.	16g/Jk	.
*Xtremolo	*	*
=4	=4	=4
8.AL 8.F\	8.f/L	.
16AK 16F\	16fK 16c/	.
8.A 8.F\	8.f 8.c/	.
16AJk 16F\	16fJk 16c/	.
8A 8F\	8.fL 8.c/	.
8r	.	.
.	16c/K	.
4r	8.f/	.
.	16a/Jk	.
=5	=5	=5
*tremolo	*	*
8A 8F\L	4cc\	.
8c\	.	.
8A 8F\	4a\	.
8c\J	.	.
*Xtremolo	*	*
*rep	*	*
8A 8F\L	4.ff\	.
8c\	.	.
8A 8F\	.	.
8c\J	8a\	.
*Xrep	*	*
!!LO:PB:g=original
=6	=6	=6
*tremolo	*	*
8G 8E\L	4.cc\	.
8c\	.	.
8G 8E\	.	.
8c\J	8b-\	.
*Xtremolo	*	*
*rep	*	*
8G 8E\L	4g/	.
8c\	.	.
8G 8E\	8g/L	.
8c\J	8b-/J	.
*Xrep	*	*
=7	=7	=7
*tremolo	*	*
8A 8F\L	4.a/	.
8c\	.	.
8A 8F\	.	.
8c\J	8a/	.
8G 8E 8C\L	8.g/L	.
8c\	.	.
.	16cc/K	.
8G 8E 8C\	8.b-/	.
8c\J	.	.
.	16g/Jk	.
*Xtremolo	*	*
=8	=8	=8
8.AL 8.F\	8.f/L	.
16A 16F\	16fK 16c/	.
8.A 8.F\	8.f 8.c/	.
16AJk 16F\	16fJk 16c/	.
8A 8F\	8f 8c/	.
8r	8r	.
4r	8e/L	.
.	8f/J	.
=9	=9	=9
8.GL 8.E 8.C\	4g/	.
16GK 16E 16C\	.	.
8.G 8.E 8.C\	4g/	.
16GJk 16E 16C\	.	.
*rep	*	*
8.GL 8.E 8.C\	4ee\	.
16GK 16E 16C\	.	.
.	16qqff/LL	.
.	16qqee/JJ	.
8.G 8.E 8.C\	8dd\L	.
.	8cc\J	.
16GJk 16E 16C\	.	.
*Xrep	*	*
=10	=10	=10
!LO:SIC:s=8.D 8.F 8.Bn	!	!
8.B-L 8.F 8.D\	4cc\	.
!LO:SIC:s=16D 16F 16Bn	!	!
16B-K 16F 16D\	.	.
!LO:SIC:s=8.D 8.F 8.Bn	!	!
8.B- 8.F 8.D\	4bn\	.
!LO:SIC:s=16D 16F 16Bn	!	!
16B-Jk 16F 16D\	.	.
*rep	*	*
!LO:SIC:s=8.D 8.F 8.Bn	!	!
8.B-L 8.F 8.D\	4r	.
!LO:SIC:s=16D 16F 16Bn	!	!
16B-K 16F 16D\	.	.
!LO:SIC:s=8.D 8.F 8.Bn	!	!
8.B- 8.F 8.D\	8.cc\L	.
!LO:SIC:s=16D 16F 16Bn	!	!
16B-Jk 16F 16D\	16b\Jk	.
*Xrep	*	*
!!LO:LB:g=original
=11	=11	=11
8.cL 8.A 8.E\	4.a\	.
16cK 16A 16E\	.	.
8.c 8.A 8.E\	.	.
.	8a\	.
16cJk 16A 16E\	.	.
8.B-L 8.G 8.E\	4.ee\	.
16B-K 16G 16E\	.	.
8.B- 8.G 8.E\	.	.
.	8e/	.
16B-Jk 16G 16E\	.	.
=12	=12	=12
4c 4A\	4a/	.
4r	8a/	.
.	4aa\	.
2r	.	.
.	8d/L	.
.	8f/	.
.	8a/J	.
=13	=13	=13
*tremolo	*	*
8A 8F\L	4cc\	.
8c\	.	.
8A 8F\	4a\	.
8c\J	.	.
*Xtremolo	*	*
*rep	*	*
8A 8F\L	4.ff\	.
8c\	.	.
8A 8F\	.	.
8c\J	8ee\	.
*Xrep	*	*
=14	=14	=14
*tremolo	*	*
8F 8D 8BB-\L	4ee\	.
8B-\	.	.
8F 8D 8BB-\	4dd\	.
8B-\J	.	.
*Xtremolo	*	*
2Bn 2F 2D 2BBn\	4r	.
.	8.ff\L	.
.	16dd\Jk	.
=15	=15	=15
4A 4F 4C\	4.cc\	.
4r	.	.
.	8a\	.
2B- 2G 2E 2C\	4dd\	.
.	16dd\LL	.
.	16cc\	.
.	16b-\	.
.	16g\JJ	.
=16	=16	=16
4A 4F\	8f\L	.
.	16ffL 16f\	.
.	16ffJJ 16f\	.
4r	8ffL 8f\	.
.	8ffJ 8f\	.
*	*tremolo	*
2r	8ff 8f\L	.
.	8ff 8f\	.
.	8ff 8f\	.
.	8ff 8f\J	.
*	*Xtremolo	*
!!LO:LB:g=original
=17	=17	=17
16BB-/LL	4dd 4b- 4f\	.
16D/	.	.
16F/	.	.
16B-/JJ	.	.
*rep	*	*
16BB-/LL	8.ddL 8.b- 8.f\	.
16D/	.	.
16F/	.	.
16B-/JJ	16ddJk 16b- 16f\	.
*Xrep	*	*
*rep	*	*
16BB-/LL	4dd 4b- 4f\	.
16D/	.	.
16F/	.	.
16B-/JJ	.	.
*Xrep	*	*
*rep	*	*
16BB-/LL	4dd 4b- 4f\	.
16D/	.	.
16F/	.	.
16B-/JJ	.	.
*Xrep	*	*
=18	=18	=18
*	*^	*
!	!LO:N:vis=4	!	!
16FF/LL	8dd 8b-/	4f\	.
16AA/	.	.	.
!	!LO:N:vis=4	!	!
16C/	8cc 8a/	.	.
16F/JJ	.	.	.
*rep	*	*	*
16FF/LL	2cc/	2a 2f\	.
16AA/	.	.	.
16C/	.	.	.
16F/JJ	.	.	.
*Xrep	*	*	*
*rep	*	*	*
16FF/LL	.	.	.
16AA/	.	.	.
16C/	.	.	.
16F/JJ	.	.	.
*Xrep	*	*	*
*rep	*	*	*
16FF/LL	8.ccL 8.a 8.f\	4ryy	.
16AA/	.	.	.
16C/	.	.	.
16F/JJ	16ccJk 16a 16f\	.	.
*Xrep	*	*	*
*	*v	*v	*
=19	=19	=19
16EE/LL	4ee 4b- 4g\	.
16EE/	.	.
16GG/	.	.
16C/JJ	.	.
*rep	*	*
16EE/LL	4ee 4b- 4g\	.
16EE/	.	.
16GG/	.	.
16C/JJ	.	.
*Xrep	*	*
*rep	*	*
16EE/LL	8.eeL 8.b- 8.g\	.
16EE/	.	.
16GG/	.	.
16C/JJ	16aK 16f\	.
*Xrep	*	*
*rep	*	*
16EE/LL	8.ee 8.b- 8.g\	.
16EE/	.	.
16GG/	.	.
16C/JJ	16ccJk 16a\	.
*Xrep	*	*
=20	=20	=20
!LO:TX:t=P:problem=mixed beam	!	!
8FF/L	8ffL 8a 8f\	.
16F\L	16ffL 16f\	.
16F\JJ	16ffJJ 16f\	.
8F\L	8ffL 8f\	.
8F\J	8ffJ 8f\	.
*tremolo	*tremolo	*
8F\L	8ff 8f\L	.
8F\	8ff 8f\	.
8F\	8ff 8f\	.
8F\J	8ff 8f\J	.
*Xtremolo	*Xtremolo	*
=21	=21	=21
16BB-\LL	4dd 4b- 4f\	.
16D\	.	.
16F\	.	.
16F\JJ	.	.
*rep	*	*
16BB-\LL	8.ddL 8.b- 8.f\	.
16D\	.	.
16F\	.	.
16F\JJ	16ddJk 16b- 16f\	.
*Xrep	*	*
*rep	*	*
16BB-\LL	4dd 4b- 4f\	.
16D\	.	.
16F\	.	.
16F\JJ	.	.
*Xrep	*	*
*rep	*	*
16BB-\LL	4dd 4b- 4f\	.
16D\	.	.
16F\	.	.
16F\JJ	.	.
*Xrep	*	*
=22	=22	=22
*	*^	*
16FF/LL	8ddL 8b-/	4f\	.
16AA/	.	.	.
16C/	8ccJ 8a/	.	.
16F/JJ	.	.	.
*	*v	*v	*
*rep	*	*
*	*^	*
16FF/LL	2cc 2a/	2f\	.
16AA/	.	.	.
16C/	.	.	.
16F/JJ	.	.	.
*Xrep	*	*	*
*rep	*	*	*
16FF/LL	.	.	.
16AA/	.	.	.
16C/	.	.	.
16F/JJ	.	.	.
*Xrep	*	*	*
*	*v	*v	*
*rep	*	*
16FF/LL	8.ccL 8.a 8.f/	.
16AA/	.	.
16C/	.	.
16F/JJ	16ccJk 16a 16f/	.
*Xrep	*	*
!!LO:LB:g=original
=23	=23	=23
16CC/LL	4ee 4b- 4g\	.
16EE/	.	.
16GG/	.	.
16C/JJ	.	.
*rep	*	*
16CC/LL	4ee 4b- 4g\	.
16EE/	.	.
16GG/	.	.
16C/JJ	.	.
*Xrep	*	*
*rep	*	*
*	*^	*
16CC/LL	4ee/	8.b-L 8.g\	.
16EE/	.	.	.
16GG/	.	.	.
16C/JJ	.	16a 16f\	.
*	*v	*v	*
*Xrep	*	*
*rep	*	*
*	*^	*
16CC/LL	4ee/	8.b- 8.g\	.
16EE/	.	.	.
16GG/	.	.	.
16C/JJ	.	16ccJk 16a\	.
*Xrep	*	*	*
*	*v	*v	*
=24	=24	=24
*tremolo	*	*
8D 8DD/L	2ff 2a 2f\	.
8D 8DD/	.	.
8D 8DD/	.	.
8D 8DD/J	.	.
*Xtremolo	*	*
!LO:TX:t=P:problem=mixed beam	!	!
8BB-/L 8BBB-/	4.ff 4.dd 4.f\	.
8B-\ 8BB-\	.	.
8B-\ 8BB-\	.	.
8B-\J 8BB-\	8dd 8b- 8f\	.
=25	=25	=25
*tremolo	*	*
!	!LO:N:vis=4	!
8c 8C\L	4.cc 4.a 4.f\	.
8c 8C\	.	.
8c 8C\	.	.
8c 8C\J	8cc\ 8a\ 8f\	.
*Xtremolo	*	*
!LO:SIC:s=4.d- 4.D-	!LO:SIC:s=4.g 4.b- 4.e	!
4.ryy	4.ryy	.
.	.	.
8c 8C\	8ee 8b- 8g\	.
=26	=26	=26
*	*Xtuplet	*
8F\	12ffL 12a 12f\	.
.	12c\	.
8r	.	.
.	12f\J	.
4r	12a/L	.
.	12f/	.
.	12a/J	.
2r	8cc\L	.
.	16cc\L	.
.	16cc\JJ	.
.	8cc\L	.
.	8cc\J	.
=27	=27	=27
4r	8cc\	.
.	8r	.
4B- 4G 4E 4C\	4ddd-X 4dd-X\	.
4B- 4G 4E 4C\	12bb-L 12dd-\	.
.	12bb-\	.
.	12gg\J	.
4B- 4G 4E 4C\	12ee\L	.
.	12cc\	.
.	12ee\J	.
=28	=28	=28
*Xtuplet	*	*
!	!LO:TX:t=P:problem=mixed beam	!
12AL 12F\	12ff\L	.
12C\	12c/	.
12F\J	12f/J	.
12A\L	12a/L	.
12F\	12f/	.
12A\J	12a/J	.
!!LO:PB:g=original
12c\L	12cc\L	.
12c\	12cc\	.
12c\J	12cc\J	.
8c\L	8cc\L	.
8c\J	8cc\J	.
=29	=29	=29
8c\	8cc\	.
8r	8r	.
!	!	!LO:DY:b:rj
4B- 4G 4E 4C\	4ddd-X 4dd-X\	ff
4B- 4G 4E 4C\	12bb-L 12dd-\	.
.	12bb-\	.
.	12gg\J	.
4B- 4G 4E 4C\	12ee\L	.
.	12cc\	.
.	12ee\J	.
=30	=30	=30
4A 4F\	12ff\L	.
.	12cc\	.
.	12aa\J	.
4B- 4G 4C\	12aa\L	.
.	12gg\	.
.	12ee\J	.
4A 4F 4C\	12aaL 12ff\	.
.	12cc\	.
.	12aa\J	.
4B- 4G 4C\	12aa\L	.
.	12gg\	.
.	12ee\J	.
=31	=31	=31
4A 4F\	12ff\L	.
.	12aa\	.
.	12ccc\J	.
4B- 4G 4E 4C\	12ccc\L	.
.	12bb-\	.
.	12gg\J	.
4A 4F\	12ff\L	.
.	12aa\	.
.	12bb-\J	.
4B- 4G 4E 4C\	12ccc\L	.
.	12bb-\	.
.	12gg\J	.
=32	=32	=32
8A 8F\	8ff\	.
8r	8r	.
8r	8r	.
16f 16c 16A 16F\	16fff 16aa 16ff\	.
4f 4c 4A 4F\	4fff 4aa 4ff\	.
8r	8r	.
16F 16C 16AA 16FF/	16f 16c 16A/	.
8ryy	8ryy	.
!!LO:LB:g=original
=33	=33	=33
2F 2C 2AA 2FF/	2c 2A/	.
4r	4r	.
==	==	==
*-	*-	*-
!!!system-decoration: [(s1,s2)]
!!!RDF**kern: > = above
!!!RDF**kern: < = below
!!!EED: Mateusz Mrugas
!!!EST: 2020-12-05
!!!AIN: 2 empty
!!!ENC: Marta Chmielewska
!!!END: 2020-06-17
